X:54
T:La balancelle
R:Bourre
C:trad
A:Morvan
O:France
Z:S Piron
M:3/8
L:1/8
Q:1/4=100
K:C
G|c/2B/2cd|ece/2f/2|gfe|d2G|c/2B/2cd|ece/2f/2|gfe|d2e|
faf|ege|dd/2f/2e/2d/2|ecd/2e/2|faf|ege|dd/2f/2e/2d/2|c2||
